contributed-vectors/voice.svg

<?xml version="1.0" encoding="UTF-8" standalone="no"?>
<svg
   viewBox="0 0 192 192"
   version="1.1"
   id="svg16"
   sodipodi:docname="voice.svg"
   inkscape:version="1.2.1 (9c6d41e410, 2022-07-14, custom)"
   xml:space="preserve"
   inkscape:export-filename="png-files/voice.png"
   inkscape:export-xdpi="96"
   inkscape:export-ydpi="96"
   xmlns:inkscape="http://www.inkscape.org/namespaces/inkscape"
   xmlns:sodipodi="http://sodipodi.sourceforge.net/DTD/sodipodi-0.dtd"
   xmlns="http://www.w3.org/2000/svg"
   xmlns:svg="http://www.w3.org/2000/svg"><sodipodi:namedview
     id="namedview18"
     pagecolor="#ffffff"
     bordercolor="#666666"
     borderopacity="1.0"
     inkscape:showpageshadow="2"
     inkscape:pageopacity="0.0"
     inkscape:pagecheckerboard="0"
     inkscape:deskcolor="#d1d1d1"
     showgrid="false"
     inkscape:zoom="2.6456134"
     inkscape:cx="64.068318"
     inkscape:cy="108.85944"
     inkscape:window-width="1600"
     inkscape:window-height="864"
     inkscape:window-x="0"
     inkscape:window-y="0"
     inkscape:window-maximized="1"
     inkscape:current-layer="svg16" /><defs
     id="defs4"><style
       id="style2">.a{fill:none;stroke:#b1b5bd;stroke-linecap:round;stroke-linejoin:round;isolation:isolate;opacity:0.63;}</style></defs><rect
     class="a"
     x="20"
     y="20"
     width="152"
     height="152"
     rx="10"
     id="rect6"
     style="display:inline;opacity:1;fill:#54688c;fill-opacity:1;stroke:#54688c;stroke-opacity:1" /><path
     style="display:inline;fill:#d8d8d8;fill-opacity:1;stroke:none;stroke-width:0.3;stroke-linecap:butt;stroke-linejoin:miter;stroke-dasharray:none;stroke-opacity:1"
     d="m 19.5,93.65635 v 5.131983 L 29.863419,82.596516 c 10.318309,-11.587907 23.547448,-12.706479 34.698325,0 l 20.14059,31.582214 c 10.225969,15.50278 30.622236,16.05794 41.732756,-0.20244 L 141.85807,89.479829 C 146.97578,82.390718 156.80626,74.714363 172.5,83.723076 v -3.976857 c -19.54332,-9.43739 -30.64193,3.769995 -34.20253,9.73361 l -15.12842,23.889111 c -11.53959,14.27627 -26.87959,10.37097 -34.879759,0.80979 L 68.162919,82.596516 c -12.503857,-18.766653 -32.284617,-14.35528 -41.928431,0 z"
     id="path6439"
     sodipodi:nodetypes="ccccccccccccccc" /><path
     style="display:inline;fill:#d8d8d8;fill-opacity:1;stroke:none;stroke-width:0.3;stroke-linecap:butt;stroke-linejoin:miter;stroke-dasharray:none;stroke-opacity:1"
     d="m 172.5,105.33405 v 5.66626 L 158.4108,89.552109 c -8.75853,-11.587904 -23.55732,-12.706478 -34.70819,0 L 108.36029,113.25386 C 96.998945,130.78531 73.413172,130.38753 63.515064,109.71223 L 47.285248,84.162676 C 43.991809,79.058088 33.470908,68.042661 19.5,75.727372 v -3.48352 c 18.552592,-7.226584 27.679836,6.323237 31.405357,11.918824 l 16.234881,25.549554 c 9.578172,16.77738 26.779523,16.42191 37.633102,3.54163 L 120.1113,89.552109 c 12.50386,-18.76666 32.28462,-14.355281 41.92843,0 z"
     id="path6439-9"
     sodipodi:nodetypes="ccccccccccccccc" /></svg>

<svg xmlns="http://www.w3.org/2000/svg" xml:space="preserve" viewBox="0 0 192 192"><rect width="152" height="152" x="20" y="20" rx="10" style="display:inline;opacity:1;fill:#54688c;fill-opacity:1;stroke:#54688c;stroke-opacity:1;stroke-linecap:round;stroke-linejoin:round;isolation:isolate"/><path d="M19.5 93.656v5.132l10.363-16.191c10.319-11.588 23.548-12.707 34.699 0l20.14 31.582c10.226 15.503 30.623 16.058 41.733-.203l15.423-24.496c5.118-7.09 14.948-14.766 30.642-5.757v-3.977c-19.543-9.437-30.642 3.77-34.203 9.734l-15.128 23.889c-11.54 14.276-26.88 10.37-34.88.81L68.163 82.597c-12.504-18.767-32.285-14.356-41.929 0z" style="display:inline;fill:#d8d8d8;fill-opacity:1;stroke:none;stroke-width:.3;stroke-linecap:butt;stroke-linejoin:miter;stroke-dasharray:none;stroke-opacity:1"/><path d="M172.5 105.334V111l-14.09-21.448c-8.758-11.588-23.557-12.706-34.707 0l-15.343 23.702C97 130.785 73.413 130.388 63.515 109.712l-16.23-25.55c-3.293-5.104-13.814-16.12-27.785-8.435v-3.483c18.553-7.227 27.68 6.323 31.405 11.919l16.235 25.55c9.578 16.777 26.78 16.421 37.633 3.54l15.338-23.7c12.504-18.768 32.285-14.356 41.929 0z" style="display:inline;fill:#d8d8d8;fill-opacity:1;stroke:none;stroke-width:.3;stroke-linecap:butt;stroke-linejoin:miter;stroke-dasharray:none;stroke-opacity:1"/></svg>
